X: 104
T: No_199_Song_of_Thanks_for_a_Pony.krn
N: Derived from No_199_Song_of_Thanks_for_a_Pony.krn
%%abc-version 2.0
%%abcx-abcm2ps-target-version 5.9.1 (29 Sep 2008)
%%abc-creator hum2abc beta
%%abcx-conversion-date 2019/03/15 08:29:13
%%humdrum-veritas 3911421488
%%humdrum-veritas-data 3486479557
%%linebreak <none>
%%barnumbers 0
L: 1/8
M: 3/4
K: B clef=treble
[K:clef=treble][M:3/4]A3/A/ B3/A/ A3/G/ | 
B3/A/A2G2 | 
D3/D/D4 | 
G3/G/ A3/G/ GD ||  
[M:2/4]GDD2[K:clef=bass] ||  
B,3/A,/ B,3/A,/ | 
{/A,}A,2G,2 ||  
[M:3/4]A,3/A,/ B,3/A,/ A,G, | 
B,3/A,/A,2G,2 | 
D,3/D,/D,4 |]  



